COLOR/categories 16/16/applications-development.svg

<svg height="16" width="16" xmlns="http://www.w3.org/2000/svg"><path d="m4.5547479.5c-3.67660394 0-4.07219894.3089843-4.05418264 3.323313v4.176687 4.176694c-.018074 3.014322.3775787 3.323306 4.05418264 3.323306h6.8910691c3.676597 0 4.054183-.308941 4.054183-3.323306v-4.176694-4.176687c0-3.0143573-.377593-3.323313-4.05419-3.323313z" fill="#0286c2"/><path d="m934 467.5s5-2.557 5 1.537v3.963h-.5s-.5 0-.5.5v6c0 .5.5.5.5.5h3s.5 0 .5-.5v-6c0-.5-.5-.5-.5-.5h-.5v-4.186c.01-.467.29-1.72 1.485-1.72l1.015.906h1.5v-4h-1.5l-1.015.686s-2.24-.79-3.64-.723-3.165 1.192-4.845 3.537z" fill="#fff" transform="matrix(.46604306332 .41406412404 -.41415144368 .46594479721 -235.36044027168 -600.96921871062)"/><path d="m4.5546875.5c-3.67660394 0-4.0727038.30989005-4.0546875 3.3242188v.5c-.0180163-3.0143288.37808356-3.3242188 4.0546875-3.3242188h6.8906245c3.676598 0 4.054688.3098615 4.054688 3.3242188v-.5c0-3.01435735-.37809-3.3242188-4.054688-3.3242188z" fill="#fff" opacity=".3"/><path d="m11.444751 15.5c3.676604 0 4.072704-.30989 4.054688-3.324219v-.5c.018016 3.014329-.378084 3.324219-4.054688 3.324219h-6.8906242c-3.67659803 0-4.05468803-.309861-4.05468803-3.324219v.5c0 3.014358.37809 3.324219 4.05468803 3.324219z" fill="#190000" opacity=".2"/></svg>

<?xml version="1.0" encoding="UTF-8" standalone="no"?>
<svg
   xmlns:osb="http://www.openswatchbook.org/uri/2009/osb"
   xmlns:dc="http://purl.org/dc/elements/1.1/"
   xmlns:cc="http://creativecommons.org/ns#"
   xmlns:rdf="http://www.w3.org/1999/02/22-rdf-syntax-ns#"
   xmlns:svg="http://www.w3.org/2000/svg"
   xmlns="http://www.w3.org/2000/svg"
   xmlns:sodipodi="http://sodipodi.sourceforge.net/DTD/sodipodi-0.dtd"
   xmlns:inkscape="http://www.inkscape.org/namespaces/inkscape"
   width="16"
   height="16"
   version="1.1"
   id="svg23"
   sodipodi:docname="applications-development.svg"
   inkscape:version="0.92.4 (5da689c313, 2019-01-14)">
  <metadata
     id="metadata27">
    <rdf:RDF>
      <cc:Work
         rdf:about="">
        <dc:format>image/svg+xml</dc:format>
        <dc:type
           rdf:resource="http://purl.org/dc/dcmitype/StillImage" />
        <dc:title></dc:title>
      </cc:Work>
    </rdf:RDF>
  </metadata>
  <sodipodi:namedview
     pagecolor="#ffffff"
     bordercolor="#666666"
     borderopacity="1"
     objecttolerance="10"
     gridtolerance="10"
     guidetolerance="10"
     inkscape:pageopacity="0"
     inkscape:pageshadow="2"
     inkscape:window-width="1489"
     inkscape:window-height="931"
     id="namedview25"
     showgrid="false"
     inkscape:zoom="14.75"
     inkscape:cx="4.5633751"
     inkscape:cy="8"
     inkscape:window-x="0"
     inkscape:window-y="27"
     inkscape:window-maximized="0"
     inkscape:current-layer="svg23" />
  <defs
     id="defs9">
    <linearGradient
       id="linearGradient5606"
       osb:paint="solid">
      <stop
         id="stop5608"
         offset="0"
         style="stop-color:#000000" />
    </linearGradient>
    <linearGradient
       id="linearGradient4526"
       osb:paint="solid">
      <stop
         id="stop4528"
         offset="0"
         style="stop-color:#ffffff" />
    </linearGradient>
    <linearGradient
       id="linearGradient3600-4"
       osb:paint="gradient">
      <stop
         id="stop3602-7"
         offset="0"
         style="stop-color:#f4f4f4" />
      <stop
         id="stop3604-6"
         offset="1"
         style="stop-color:#dbdbdb" />
    </linearGradient>
    <clipPath
       clipPathUnits="userSpaceOnUse"
       id="clipPath971">
      <path
         style="color:#000000;display:inline;overflow:visible;visibility:visible;opacity:1;fill:#46a926;fill-opacity:1;fill-rule:nonzero;stroke:none;stroke-width:2;stroke-miterlimit:4;stroke-dasharray:none;stroke-opacity:1;marker:none;enable-background:accumulate"
         d="m 327.8652,189 c -4.41209,0 -4.88682,0.45318 -4.8652,4.87419 V 200 206.12581 C 322.9783,210.54682 323.45311,211 327.8652,211 h 8.2696 C 340.54689,211 341,210.54688 341,206.12581 V 200 193.87419 C 341,189.45313 340.54688,189 336.13479,189 Z"
         id="path973"
         inkscape:connector-curvature="0"
         sodipodi:nodetypes="scccssscsss" />
    </clipPath>
  </defs>
  <path
     sodipodi:nodetypes="scccssscsss"
     inkscape:connector-curvature="0"
     id="path914"
     d="M 4.5547479,0.5 C 0.87814396,0.5 0.48254896,0.8089843 0.50056526,3.823313 V 8 12.176694 C 0.48249126,15.191016 0.87814396,15.5 4.5547479,15.5 H 11.445817 C 15.122414,15.5 15.5,15.191059 15.5,12.176694 V 8 3.823313 C 15.5,0.8089557 15.122407,0.5 11.44581,0.5 Z"
     style="color:#000000;display:inline;overflow:visible;visibility:visible;fill:#0286c2;fill-opacity:1;fill-rule:nonzero;stroke:none;stroke-width:0.71429157;marker:none;enable-background:accumulate" />
  <g
     id="g896"
     transform="matrix(0.53601578,0.47623261,-0.47633304,0.53590276,-227.94877,-634.29012)"
     style="fill:#ffffff;fill-opacity:1">
    <g
       id="g944"
       style="color:#000000;fill:#ffffff;fill-opacity:1"
       transform="matrix(0.86945773,0,0,0.86945773,23.147181,41.607285)">
      <path
         id="path942"
         overflow="visible"
         d="m 934,467.5 c 0,0 5,-2.557 5,1.537 V 473 h -0.5 c 0,0 -0.5,0 -0.5,0.5 v 6 c 0,0.5 0.5,0.5 0.5,0.5 h 3 c 0,0 0.5,0 0.5,-0.5 v -6 c 0,-0.5 -0.5,-0.5 -0.5,-0.5 H 941 v -4.186 c 0.01,-0.467 0.29,-1.72 1.485,-1.72 L 943.5,468 h 1.5 v -4 h -1.5 l -1.015,0.686 c 0,0 -2.24,-0.79 -3.64,-0.723 -1.4,0.067 -3.165,1.192 -4.845,3.537 z"
         style="overflow:visible;fill:#ffffff;fill-opacity:1"
         inkscape:connector-curvature="0" />
    </g>
  </g>
  <path
     style="color:#000000;display:inline;overflow:visible;visibility:visible;fill:#ffffff;fill-opacity:1;fill-rule:nonzero;stroke:none;stroke-width:0.71429157;marker:none;enable-background:accumulate;opacity:0.3"
     d="M 4.5546875 0.5 C 0.87808356 0.5 0.4819837 0.80989005 0.5 3.8242188 L 0.5 4.3242188 C 0.4819837 1.30989 0.87808356 1 4.5546875 1 L 11.445312 1 C 15.12191 1 15.5 1.3098615 15.5 4.3242188 L 15.5 3.8242188 C 15.5 0.80986145 15.12191 0.5 11.445312 0.5 L 4.5546875 0.5 z "
     id="path836" />
  <path
     id="path841"
     d="m 11.444751,15.5 c 3.676604,0 4.072704,-0.30989 4.054688,-3.324219 v -0.5 C 15.517455,14.69011 15.121355,15 11.444751,15 H 4.5541268 C 0.87752877,15 0.49943877,14.690139 0.49943877,11.675781 v 0.5 c 0,3.014358 0.37809,3.324219 4.05468803,3.324219 z"
     style="color:#000000;display:inline;overflow:visible;visibility:visible;opacity:0.2;fill:#190000;fill-opacity:1;fill-rule:nonzero;stroke:none;stroke-width:0.71429157;marker:none;enable-background:accumulate"
     inkscape:connector-curvature="0" />
</svg>
